64x64/apps/bottles_winetricks.svg

<svg height="64" width="64" xmlns="http://www.w3.org/2000/svg"><rect fill="#4f4f4f" height="56" rx="3" width="56" x="4" y="4"/><path d="m11.43 35h17.142c.79 0 1.428.638 1.428 1.428v17.142c0 .792-.638 1.43-1.428 1.43h-17.143a1.426 1.426 0 0 1 -1.429-1.428v-17.142c0-.79.637-1.428 1.429-1.428z" opacity=".2"/><path d="m11.43 11h17.14c.79 0 1.428.638 1.428 1.43v17.142c0 .79-.638 1.428-1.428 1.428h-17.14a1.426 1.426 0 0 1 -1.43-1.428v-17.143c0-.792.637-1.429 1.429-1.429zm23.998 0h17.142c.792 0 1.43.638 1.43 1.43v17.142c0 .79-.638 1.428-1.428 1.428h-17.142c-.792 0-1.43-.638-1.43-1.428v-17.143c0-.791.637-1.428 1.428-1.428z" opacity=".2"/><path d="m7 4c-1.662 0-3 1.338-3 3v1c0-1.662 1.338-3 3-3h50c1.662 0 3 1.338 3 3v-1c0-1.662-1.338-3-3-3z" fill="#f4f4f7" opacity=".1"/><path d="m11.43 10h17.142c.79 0 1.428.638 1.428 1.43v17.142c0 .79-.638 1.428-1.428 1.428h-17.143a1.426 1.426 0 0 1 -1.429-1.428v-17.143c0-.792.637-1.429 1.429-1.429zm23.998 0h17.142c.792 0 1.43.637 1.43 1.429v17.143c0 .79-.638 1.428-1.428 1.428h-17.142c-.792 0-1.43-.638-1.43-1.428v-17.143c0-.792.637-1.429 1.429-1.429zm-23.998 24h17.142c.79 0 1.428.638 1.428 1.428v17.142c0 .792-.638 1.43-1.428 1.43h-17.143a1.426 1.426 0 0 1 -1.429-1.428v-17.142c0-.79.637-1.428 1.429-1.428z" fill="#48aeff"/><path d="m4 57v1c0 1.662 1.338 3 3 3h50c1.662 0 3-1.338 3-3v-1c0 1.662-1.338 3-3 3h-50c-1.662 0-3-1.338-3-3z" opacity=".2"/><circle cx="46" cy="46" fill="#fa6257" r="16"/><path d="m46 52.584-6.18 3.416 1.18-7.236-5-5.124 6.91-1.056 3.09-6.584 3.09 6.584 6.91 1.056-5 5.124 1.18 7.236z" fill="#f4f4f7"/><path d="m30.025 46.502a16 16 0 0 0 -.025.498 16 16 0 0 0 16 16 16 16 0 0 0 16-16 16 16 0 0 0 -.018-.492 16 16 0 0 1 -15.982 15.492 16 16 0 0 1 -15.975-15.498z" opacity=".2"/></svg>

<svg height="64" width="64" xmlns="http://www.w3.org/2000/svg">
    <rect fill="#4f4f4f" height="56" rx="3" width="56" x="4" y="4"/>
    <path d="M11.43 35h17.142c.79 0 1.428.638 1.428 1.428V53.57c0 .792-.638 1.43-1.428 1.43H11.429A1.426 1.426 0 0 1 10 53.572V36.43c0-.79.637-1.428 1.429-1.428zM11.43 11h17.14c.79 0 1.428.638 1.428 1.43v17.142c0 .79-.638 1.428-1.428 1.428H11.43A1.426 1.426 0 0 1 10 29.572V12.429c0-.792.637-1.429 1.429-1.429zm23.998 0H52.57c.792 0 1.43.638 1.43 1.43v17.142c0 .79-.638 1.428-1.428 1.428H35.43c-.792 0-1.43-.638-1.43-1.428V12.429c0-.791.637-1.428 1.428-1.428z" opacity=".2"/>
    <path d="M7 4C5.338 4 4 5.338 4 7v1c0-1.662 1.338-3 3-3h50c1.662 0 3 1.338 3 3V7c0-1.662-1.338-3-3-3z" fill="#f4f4f7" opacity=".1"/>
    <path d="M11.43 10h17.142c.79 0 1.428.638 1.428 1.43v17.142c0 .79-.638 1.428-1.428 1.428H11.429A1.426 1.426 0 0 1 10 28.572V11.429c0-.792.637-1.429 1.429-1.429zm23.998 0H52.57c.792 0 1.43.637 1.43 1.429v17.143c0 .79-.638 1.428-1.428 1.428H35.43c-.792 0-1.43-.638-1.43-1.428V11.429c0-.792.637-1.429 1.429-1.429zM11.43 34h17.142c.79 0 1.428.638 1.428 1.428V52.57c0 .792-.638 1.43-1.428 1.43H11.429A1.426 1.426 0 0 1 10 52.572V35.43c0-.79.637-1.428 1.429-1.428z" fill="#48aeff"/>
    <path d="M4 57v1c0 1.662 1.338 3 3 3h50c1.662 0 3-1.338 3-3v-1c0 1.662-1.338 3-3 3H7c-1.662 0-3-1.338-3-3z" opacity=".2"/>
    <circle cx="46" cy="46" fill="#fa6257" r="16"/>
    <path d="M46 52.584 39.82 56 41 48.764l-5-5.124 6.91-1.056L46 36l3.09 6.584L56 43.64l-5 5.124L52.18 56z" fill="#f4f4f7"/>
    <path d="M30.025 46.502A16 16 0 0 0 30 47a16 16 0 0 0 16 16 16 16 0 0 0 16-16 16 16 0 0 0-.018-.492A16 16 0 0 1 46 62a16 16 0 0 1-15.975-15.498z" opacity=".2"/>
</svg>
